!!!OTL: Landsknechtorden
!!!ARE: Europa, Mitteleuropa, Deutschland
!!!SCT: A0416B
!!!YEM: Copyright 1995, estate of Helmut Schaffrath.
**kern
*ICvox
*Ivox
*M4/4
*k[b-]
*F:
{4g
4g
4g
=1
4f
4f
4b-
4cc
=2
4dd
4cc
4b-
8a
8g
=3
2a
2f
=4
4r}
{4g
4dd
4dd
=5
4b-
4b-
4.cc
8cc
=6
4dd
4cc
4.b-
8cc
=7
2dd
2cc
=8
4r}
{4b-
4a
4g
=9
4cc
4b-
4f
4g
=10
2a
4r}
{4f
=11
4.b-
8b-
4cc
4cc
=12
2dd
2b-
=13
4r
4dd
4cc
4g
=14
4b-
4a
2g
=15
4r}
==
!!!AGN: Romanze, Ballade, Lied, Kriegslied
!! Werlin 1646 S. 1701
!!!ONB: ESAC (Essen Associative Code) Database: ALTDEU
!!!AMT: simple quadruple
!!!AIN: vox
!!!EED: Helmut Schaffrath
!!!EEV: 1.0
*-
